X: 23217
T: Leaning Tower
R: waltz
M: 3/4
K: Gmajor
|:D GA|AB BA BA|B2 G2 GA|Bg gf gf|e3 d ef|
g2 gf ed|B2 G2 GA|c/B/A BA Bc|A3 D GA|
AB BA BA|B2 G2 GA|Bg gf gf|e3 d ef|
g2 gf ed|g2 B2 Bc|Bc AB EF|G3-:|
|:G ef|gB gB aB|gB gB aB|gB gB aB|f3 g/f/ ef|
g2 gf ed|B2 G2 GA|c/B/A c/B/A Bc|A4 ef|
gB gB aB|gB gB aB|gB gB aB|f3 g/f/ ef|
g2 gf ed|g2 B2 Bc|Bc AB EF|G3-:|

